resources/svg/add-col-after.svg

<svg xmlns="http://www.w3.org/2000/svg" width="24" height="24" viewBox="0 0 24 24">
  <path fill="currentColor" d="M5,14 C7.76005315,14.0033061 9.99669388,16.2399468 10,19 C10,21.7614237 7.76142375,24 5,24 C2.23857625,24 1.77635684e-15,21.7614237 1.77635684e-15,19 C1.77635684e-15,16.2385763 2.23857625,14 5,14 Z M7.5,19.9375 C8.01776695,19.9375 8.4375,19.517767 8.4375,19 C8.4375,18.482233 8.01776695,18.0625 7.5,18.0625 L6.25,18.0625 C6.07741102,18.0625 5.9375,17.922589 5.9375,17.75 L5.9375,16.5 C5.9375,15.982233 5.51776695,15.5625 5,15.5625 C4.48223305,15.5625 4.0625,15.982233 4.0625,16.5 L4.0625,17.75 C4.0625,17.922589 3.92258898,18.0625 3.75,18.0625 L2.5,18.0625 C1.98223305,18.0625 1.5625,18.482233 1.5625,19 C1.5625,19.517767 1.98223305,19.9375 2.5,19.9375 L3.75,19.9375 C3.92258898,19.9375 4.0625,20.077411 4.0625,20.25 L4.0625,21.5 C4.0625,22.017767 4.48223305,22.4375 5,22.4375 C5.51776695,22.4375 5.9375,22.017767 5.9375,21.5 L5.9375,20.25 C5.9375,20.077411 6.07741102,19.9375 6.25,19.9375 L7.5,19.9375 Z M16,19 C16,20.6568542 17.3431458,22 19,22 C20.6568542,22 22,20.6568542 22,19 L22,5 C22,3.34314575 20.6568542,2 19,2 C17.3431458,2 16,3.34314575 16,5 L16,19 Z M14,19 L14,5 C14,2.23857625 16.2385763,0 19,0 C21.7614237,0 24,2.23857625 24,5 L24,19 C24,21.7614237 21.7614237,24 19,24 C16.2385763,24 14,21.7614237 14,19 Z"/>
</svg>

<svg xmlns="http://www.w3.org/2000/svg" viewBox="0 0 24 24"><path fill="currentColor" d="M5 14a5 5 0 1 1 0 10 5 5 0 0 1 0-10Zm2.5 5.938a.937.937 0 1 0 0-1.875H6.25a.312.312 0 0 1-.313-.313V16.5a.937.937 0 1 0-1.875 0v1.25c0 .173-.14.313-.312.313H2.5a.937.937 0 1 0 0 1.875h1.25c.173 0 .313.14.313.312v1.25a.937.937 0 1 0 1.875 0v-1.25c0-.173.14-.313.312-.313H7.5ZM16 19a3 3 0 0 0 6 0V5a3 3 0 0 0-6 0v14Zm-2 0V5a5 5 0 0 1 10 0v14a5 5 0 0 1-10 0Z"/></svg>
